X:1
T:Tombeau de Monsr. de Lenclos
T:Tombeau de Monsr. de Lenclos
T:from La Rhétorique des Dieux
T:Denis Gaultier (after 1600-1672)
C:Denis Gaultier (after 1600-1672)
%%score ( 1 2 3 4 ) { ( 5 7 ) | ( 6 8 9 ) }
L:1/8
Q:1/2=34
M:2/2
K:C
V:1 tab stafflines=6 strings=G2,C3,F3,A3,D4,G4 nostems nm="Laute (Tabulatur)"
V:2 tab stafflines=6 strings=G2,C3,F3,A3,D4,G4 nostems 
V:3 tab stafflines=6 strings=G2,C3,F3,A3,D4,G4 nostems 
V:4 tab stafflines=6 strings=G2,C3,F3,A3,D4,G4 nostems 
V:5 treble nm="Clavichord"
V:7 treble 
V:6 bass 
V:8 bass 
V:9 bass 
V:1
!mf! !1!A3 !1!G !2!F2 !2!E !2!D | [!3!C!2!E]2 [!3!C!2!E]4 !2!D2 | !2!E2 !2!E !2!D !2!E2 !2!D !3!C | %3
 [!4!^G,!3!B,]2 [!4!G,!3!B,]2 !3!A, !3!A,-!<(! [!6!B,,!3!B,]2 | %4
 !3!C !3!A, !2!E2 !2!D !1!A [!5!E,!1!G]2!<)! | %5
 [!4!A,!3!D!2!F]4!>(! [!5!C,!3!C!2!E]2 [!6!G,,!2!D]2 | !3!C4!>)!!p! !3!C2 !3!B, !3!C | %7
 !3!A,3 !2!D [!5!E,!4!^G,!2!D]2 !3!C3/2 !2!D/ | !3!B,4 !breath![!6!E,,!5!E,!4!^G,!3!B,]4 || %9
!mf! !3!B,3 !3!B, !2!E4 | x !2!E !2!D !3!^C !2!D2 !2!D !3!=C | x2!<(! !2!E !2!^F !1!G !1!G !2!F2 | %12
 [!5!E,!1!G]2 [!3!C!1!A]2!<)!!f! [!4!G,!1!A]2 !1!G3/2 !2!=F/ | !2!E2 !1!G !2!E !2!F4- | %14
 !2!F !2!E x !2!^F !1!^G2 !1!A2 | [!4!^G,!1!B]2 x2 x !1!A2 !1!B |!f! !1!c2 x !1!G [!6!D,,!2!F]4 | %17
!>(! !2!D2[Q:1/2=34][Q:1/2=33]"^.8" !3!=C[Q:1/2=33]"^.4" !2!D-[Q:1/2=32]"^.7" !2!D[Q:1/2=31]"^.8" !3!C[Q:1/2=30]"^.5" [!6!E,,!5!E,!3!B,]2[Q:1/2=27]!>)! | %18
!mp![Q:1/2=26]"^.7" !3!A,4[Q:1/2=24][Q:1/2=21][Q:1/2=17][Q:1/2=14] !fermata![!6!A,,!5!E,!3!A,!4!A,]4 |] %19
V:2
 x2 !2!E2 x !3!A,3 | x !6!A,, !4!A,2 !4!G,2- !4!G, !4!F, | !4!^G,4- !4!G, !3!A,3 | %3
 x6 !4!A,3/2 !4!^G,/ | x !4!A,3 !3!D3 !3!^C | x6 !3!C3/2 !3!B,/ | %6
 !5!C,2- [!6!C,!5!E,]2 [!5!D,!4!F,]4 | x6 [!6!E,,!4!A,]2 | !4!A,3 !4!^G, x4 || %9
 x2 !6!E,,2 x !3!A, !4!G, !4!F, | !5!E,4- !5!E, !4!^F, !4!G,2- | %11
 !3!B,2 [!4!A,!3!E-]2 !2!E2- !3!E3/2 !2!^D/ | x !3!C- x2 !3!B,4 | %13
 [!6!C,,!5!C,]4 !6!D,,2 !5!C, !6!B,, | !6!A,,2 !6!E,,2- !6!E,,!<(! !5!E,- !5!E, !4!^F, | %15
 x !6!E,,- !6!E,,2- !6!E,,4!<)! | !2!E2 x3 !3!A, !3!B, !3!^C | %17
 x2 !4!C2 !3!A,2- !4!A,3/2"^.8" !4!^G,/ | x3"^.9" !3!A, x4 |] %19
V:3
 x8 | x8 | !5!E, !6!E,,- [!6!E,,!5!E,]2- [!6!E,,!5!E,]4 | x !5!E,2 !5!D, !5!C,2 x2 | %4
 !6!A,,3 !4!=G, !4!F,2 x2 | !5!D,2 !6!A,, !6!B,, x4 | x8 | !4!F, !5!D,- [!5!D,!4!F,]2 x4 | %8
 x !6!E,,3- x4 || x8 | x8 | !4!G, !4!^G, x2 !3!B,4 | x2 !4!=F, !5!D, x2 !6!G,,2 | x8 | x8 | %15
 x2 !3!A, !3!B, !3!C2 !2!D2 | x2 !6!C,,2 x4 | x !6!E,,- !6!E,,4- x2 | x2"^.3" !5!E,2- x4 |] %19
V:4
 x8 | x8 | x8 | x8 | x8 | x8 | x8 | x8 | x2 !5!E,2- x4 || x8 | x8 | x8 | x8 | x8 | x8 | x8 | x8 | %17
 x8 | x"^.3" !6!A,,3- x4 |] %19
V:5
 A3 G F2 ED | [CE]2 [CE]4 D2 | E2 ED E2 DC | [^G,B,]2 [G,B,]2 A,A,- B,2 | CA, E2 DA G2 | %5
 [A,DF]4 [CE]2 D2 | C4 C2 B,C | A,3 D [^G,D]2 C>D | B,4 !fermata!B,4 || B,3 B, E4 | z ED^C D2 D=C | %11
 z2 E^F GG F2 | G2 A2 A2 G>=F | E2 GE F4- | FE z ^F ^G2 A2 | B2 z2 z A2 B | c2 z G F4 | %17
 D2 =CD- DC B,2 | A,4 !fermata!A,4 |] %19
V:6
 z2 E2 z A,3 | z A,, A,2 G,2- G,F, | E,E,,- [E,,E,]2- [E,,E,]4 | z E,2 D, C,2 B,,2 | %4
 A,,3 =G, F,2 E,2 | D,2 A,,B,, C,2 G,,2 | C,2- [C,E,]2 [D,F,]4 | F,D,- [D,F,]2 E,2 E,,2 | %8
 z E,,E,[I:staff -1]^G, G,4 ||[I:staff +1] z2 E,,2 z A,G,F, | E,4- E,^F, G,2- | G,^G, A,2 B,4 | %12
 E,2 =F,D, G,2 G,,2 | [C,,C,]4 D,,2 C,B,, | A,,2 E,,2- E,,E,- E,^F, | ^G,2[I:staff -1] A,B, C2 D2 | %16
[I:staff +1] z2 C,,2 D,,4 | z E,,- E,,4- [E,,E,]2 | z A,,E,A,- !fermata![A,,E,A,]4 |] %19
V:7
 x8 | x8 | ^G,4- G, A,3 | x6 A,>^G, | z A,3 D3 ^C | x6 C>B, | x8 | x6 A,2- | A,3 x5 || x8 | x8 | %11
 B,2 E2- E2- E>^D | z C- C2 B,4 | x8 | x8 | x8 | E2 x2 z A, B,^C | x2 C2 A,2- A,>^G, | x8 |] %19
V:8
 x8 | x8 | x8 | x8 | x8 | x8 | x8 | x8 | x2 E,2- [E,,E,]4 || x8 | x8 | x8 | x8 | x8 | x8 | %15
 z E,,- E,,2- E,,4 | x8 | x8 | x2 E,2- x4 |] %19
V:9
 x8 | x8 | x8 | x8 | x8 | x8 | x8 | x8 | x E,,3- x4 || x8 | x8 | x8 | x8 | x8 | x8 | x8 | x8 | x8 | %18
 x A,,3- x4 |] %19

